polaris-icons/icons/new-icons/SandboxMajor.svg

<svg width="20" height="20" viewBox="0 0 20 20" fill="none" xmlns="http://www.w3.org/2000/svg">
<path fill-rule="evenodd" clip-rule="evenodd" d="M9.60523 3.3623C9.84711 3.21257 10.1529 3.21257 10.3948 3.3623L15.6448 6.6123C15.8656 6.74902 16 6.99026 16 7.25C16 7.29217 15.9965 7.33386 15.9896 7.37468C15.9964 7.41543 16 7.4573 16 7.5V13C16 13.2597 15.8656 13.501 15.6448 13.6377L10.3948 16.8877C10.1529 17.0374 9.84711 17.0374 9.60523 16.8877L4.35523 13.6377C4.13439 13.501 4 13.2597 4 13V7.5C4 7.4573 4.00357 7.41543 4.01042 7.37468C4.00354 7.33386 4 7.29217 4 7.25C4 6.99026 4.13439 6.74902 4.35523 6.6123L9.60523 3.3623ZM10.75 10.9178L14.5 8.59636V12.5822L10.75 14.9036V10.9178ZM9.25 10.9178L5.5 8.59636V12.5822L9.25 14.9036V10.9178ZM6.17489 7.25L10 9.61792L13.8251 7.25L10 4.88208L6.17489 7.25Z" fill="#4A4A4A"/>
</svg>

<svg viewBox="0 0 20 20" xmlns="http://www.w3.org/2000/svg"><path fill-rule="evenodd" d="M9.605 3.362a.75.75 0 0 1 .79 0l5.25 3.25a.75.75 0 0 1 .345.763c.006.04.01.082.01.125v5.5a.75.75 0 0 1-.355.638l-5.25 3.25a.75.75 0 0 1-.79 0l-5.25-3.25a.75.75 0 0 1-.355-.638v-5.5c0-.043.004-.085.01-.125a.75.75 0 0 1 .345-.763l5.25-3.25Zm1.145 7.556 3.75-2.322v3.986l-3.75 2.322v-3.986Zm-1.5 0-3.75-2.322v3.986l3.75 2.322v-3.986Zm-3.075-3.668 3.825 2.368 3.825-2.368-3.825-2.368-3.825 2.368Z" fill="#5C5F62"/></svg>
